dist/svg/chart-bar.svg

<!-- Generated by Trend Micro Style Portal -->
<svg version="1.1" xmlns="http://www.w3.org/2000/svg" width="16" height="16" viewBox="0 0 16 16">
  <title>chart-bar</title>
  <path fill="rgb(34,34,34)" d="M16 14v1h-16v-14h1v13zM5 9h-2v4h2zM8 5h-2v8h2zM11 7h-2v6h2zM14 3h-2v10h2z"></path>
</svg>

<svg width="16" height="16" viewBox="0 0 16 16" fill="rgb(34, 34, 34)" xmlns="http://www.w3.org/2000/svg"><title>chart-bar</title><path d="M16 14V15H0V1H1V14H16ZM5 9H3V13H5V9ZM8 5H6V13H8V5ZM11 7H9V13H11V7ZM14 3H12V13H14V3Z" fill="rgb(34, 34, 34)" fill-opacity="1.00"/></svg>
